X:334
T:Sweet Biddy Daly
T:Health to the Ladies, A
R:jig
H:Also played in G, #135
Z:id:hn-jig-334
M:6/8
K:A
f|:ecA BAF|AFE EFA|Bdc BAB|cBB B2f|ecA BAF|AFE EFA|Bdc BAB|1 cAA A2f:|2 cAA A2B||
|:cee dff|cee ecA|cee dff|ecA B2A|cee dff|cee ecA|Bdc BAB|1 cAA A2B:|2 cAA A2||
P:Variations:
a|:ecA BAF|AFE EFA|~c3 BAB|cBB B2a|ecA BAF|AFE EFA|~c3 BAB|1 cAA A2a:|2 cAA A2B||
|:cee dff|cee ecA|cee a2f|ecA B2A|cee dff|cee ecA|~c3 BAB|1 cAA A2B:|2 cAA A2||

